src/assets/customicons/anti-lock.svg

<?xml version="1.0" encoding="UTF-8" standalone="no"?>
<svg xmlns:dc="http://purl.org/dc/elements/1.1/" xmlns:cc="http://creativecommons.org/ns#" xmlns:rdf="http://www.w3.org/1999/02/22-rdf-syntax-ns#" xmlns:svg="http://www.w3.org/2000/svg" xmlns="http://www.w3.org/2000/svg" xmlns:sodipodi="http://sodipodi.sourceforge.net/DTD/sodipodi-0.dtd" xmlns:inkscape="http://www.inkscape.org/namespaces/inkscape" version="1.1" width="24" height="24" viewBox="0 0 24 24" id="svg3763" sodipodi:docname="anti-lock.svg" inkscape:version="0.92.4 (5da689c313, 2019-01-14)">
  <metadata id="metadata3769">
    <rdf:RDF>
      <cc:Work rdf:about="">
        <dc:format>image/svg+xml</dc:format>
        <dc:type rdf:resource="http://purl.org/dc/dcmitype/StillImage"/>
        <dc:title/>
      </cc:Work>
    </rdf:RDF>
  </metadata>
  <defs id="defs3767"/>
  <sodipodi:namedview pagecolor="#ffffff" bordercolor="#666666" borderopacity="1" objecttolerance="10" gridtolerance="10" guidetolerance="10" inkscape:pageopacity="0" inkscape:pageshadow="2" inkscape:window-width="1920" inkscape:window-height="1023" id="namedview3765" showgrid="false" inkscape:zoom="34.5" inkscape:cx="8.4637681" inkscape:cy="12" inkscape:window-x="0" inkscape:window-y="28" inkscape:window-maximized="1" inkscape:current-layer="layer2"/>
  <g inkscape:groupmode="layer" id="layer2" inkscape:label="Lock" style="display:inline">
    <path d="M 12 1 A 5 5 0 0 0 7 6 L 7 8 L 6 8 C 4.9 8 4 8.8900004 4 10 L 4 20 A 2 2 0 0 0 6 22 L 18 22 A 2 2 0 0 0 20 20 L 20 10 A 2 2 0 0 0 18 8 L 17 8 L 17 6 A 5 5 0 0 0 12 1 z M 12 3 A 3 3 0 0 1 15 6 L 15 8 L 9 8 L 9 6 A 3 3 0 0 1 12 3 z M 12.072266 9.8847656 A 5.0000001 5.0000001 0 0 1 17.072266 14.884766 A 5.0000001 5.0000001 0 0 1 12.072266 19.884766 A 5.0000001 5.0000001 0 0 1 7.0722656 14.884766 A 5.0000001 5.0000001 0 0 1 12.072266 9.8847656 z M 12.072266 10.884766 A 4.0000001 4.0000001 0 0 0 8.0722656 14.884766 C 8.0722656 15.809766 8.3871094 16.659844 8.9121094 17.339844 L 14.527344 11.724609 C 13.847344 11.199609 12.997266 10.884766 12.072266 10.884766 z M 15.232422 12.429688 L 9.6171875 18.044922 C 10.297187 18.569922 11.147267 18.884766 12.072266 18.884766 A 4.0000001 4.0000001 0 0 0 16.072266 14.884766 C 16.072266 13.959766 15.757422 13.109688 15.232422 12.429688 z " id="path3761-3"/>
  </g>
</svg>

<svg xmlns="http://www.w3.org/2000/svg" width="24" height="24">
  <path d="M12 1a5 5 0 0 0-5 5v2H6a2 2 0 0 0-2 2v10a2 2 0 0 0 2 2h12a2 2 0 0 0 2-2V10a2 2 0 0 0-2-2h-1V6a5 5 0 0 0-5-5zm0 2a3 3 0 0 1 3 3v2H9V6a3 3 0 0 1 3-3zm.072 6.885a5 5 0 0 1 5 5 5 5 0 0 1-5 5 5 5 0 0 1-5-5 5 5 0 0 1 5-5zm0 1a4 4 0 0 0-4 4c0 .925.315 1.775.84 2.455l5.615-5.615a4.003 4.003 0 0 0-2.455-.84zm3.16 1.545-5.615 5.615c.68.525 1.53.84 2.455.84a4 4 0 0 0 4-4c0-.925-.315-1.775-.84-2.455z" style="display:inline"/>
</svg>
